governance/ui/public/councils/ac1.svg

<svg width="81" height="80" viewBox="0 0 81 80" fill="none" xmlns="http://www.w3.org/2000/svg">
    <g clip-path="url(#clip0_4138_20006)">
        <path fill-rule="evenodd" clip-rule="evenodd"
            d="M27.9812 36.9995H33.8912L36.2126 40.4596L39.8569 36.0379L38.1625 33.9422L38.159 33.9378C37.6772 33.3501 37.0747 32.8729 36.3922 32.5385C35.7098 32.2041 34.9634 32.0201 34.2038 31.9995H27.9812V36.9995Z"
            fill="white" />
        <path fill-rule="evenodd" clip-rule="evenodd"
            d="M44.882 32.2234C44.2009 32.5503 43.5971 33.0181 43.1104 33.596L37.5952 40.8144L33.9742 45.1995H28.0812V50.1995L34.2812 50.2L34.3121 50.1989C35.0677 50.1709 35.809 49.9845 36.488 49.6517C37.1669 49.319 37.7685 48.8475 38.2537 48.2675L40.7187 45.2666L43.3885 48.1499C43.87 48.7242 44.4665 49.1914 45.1396 49.5213C45.8198 49.8545 46.5627 50.0405 47.3197 50.0661H53.2812V44.8328H47.3608L44.1247 40.8971L47.327 36.9687C47.3312 36.9669 47.3357 36.9661 47.3402 36.9661H53.2812V31.6995L47.0812 31.6992L47.061 31.6997C46.3058 31.718 45.563 31.8964 44.882 32.2234Z"
            fill="white" />
        <path fill-rule="evenodd" clip-rule="evenodd"
            d="M13.2147 18.4326H7.71465V13.4326H73.648V18.4326H68.1814V45.7659C68.1814 49.376 67.4697 52.9507 66.0871 56.2855C64.7045 59.6203 62.678 62.6498 60.1236 65.2008C57.5692 67.7518 54.537 69.7742 51.2004 71.1524C47.8637 72.5305 44.2881 73.2374 40.6781 73.2326C33.3946 73.2317 26.4097 70.338 21.2595 65.1878C16.1085 60.0368 13.2147 53.0506 13.2147 45.7659V18.4326ZM18.2147 18.4326V45.7659C18.2147 51.7245 20.5817 57.439 24.7951 61.6523C29.0084 65.8656 34.7229 68.2326 40.6814 68.2326V70.7326L40.6847 68.2326C43.6376 68.2366 46.5623 67.6584 49.2916 66.5311C52.0208 65.4038 54.5011 63.7495 56.5905 61.6629C58.6799 59.5763 60.3374 57.0982 61.4684 54.3705C62.5993 51.6428 63.1814 48.7188 63.1814 45.7659V18.4326H18.2147Z"
            fill="white" />
    </g>
    <defs>
        <clipPath id="clip0_4138_20006">
            <rect width="80" height="80" fill="white" transform="translate(0.681763)" />
        </clipPath>
    </defs>
</svg>

<svg width="81" height="80" fill="none" viewBox="0 0 81 80" xmlns="http://www.w3.org/2000/svg">
  <g fill="#fff" fill-rule="evenodd" clip-path="url(#a)" clip-rule="evenodd">
    <path d="M27.981 37h5.91l2.322 3.46 3.644-4.422-1.694-2.096-.004-.004a5.3 5.3 0 0 0-3.955-1.939H27.98z"/>
    <path d="M44.882 32.223a5.3 5.3 0 0 0-1.772 1.373l-5.515 7.218-3.62 4.386H28.08v5h6.2l.031-.001a5.4 5.4 0 0 0 3.942-1.931l2.465-3.001 2.67 2.883a5.37 5.37 0 0 0 3.93 1.916h5.962v-5.233h-5.92l-3.236-3.936 3.202-3.928.013-.003h5.941V31.7h-6.22a5.3 5.3 0 0 0-2.179.524"/>
    <path d="M13.215 18.433h-5.5v-5h65.933v5h-5.467v27.333a27.467 27.467 0 0 1-27.503 27.467 27.467 27.467 0 0 1-27.463-27.467zm5 0v27.333A22.466 22.466 0 0 0 40.68 68.233v2.5l.004-2.5A22.466 22.466 0 0 0 63.18 45.766V18.433z"/>
  </g>
  <defs>
    <clipPath id="a">
      <path fill="#fff" d="M.682 0h80v80h-80z"/>
    </clipPath>
  </defs>
</svg>
